dist/img/icons/user-orange.svg

<svg width="20" height="20" viewBox="0 0 20 20" fill="none" xmlns="http://www.w3.org/2000/svg">
<path d="M14.7045 5.33333C14.7045 7.84884 12.6142 9.91667 10 9.91667C7.38577 9.91667 5.29545 7.84884 5.29545 5.33333C5.29545 2.81783 7.38577 0.75 10 0.75C12.6142 0.75 14.7045 2.81783 14.7045 5.33333ZM0.806893 19.25C0.899098 18.6439 1.10329 18.0448 1.41886 17.4692C1.86497 16.6554 2.52739 15.9008 3.38106 15.2558C4.23484 14.6107 5.25855 14.0917 6.39717 13.7353C7.53555 13.3791 8.76023 13.1944 10 13.1944C11.2398 13.1944 12.4645 13.3791 13.6028 13.7353C14.7415 14.0917 15.7652 14.6107 16.6189 15.2558C17.4726 15.9008 18.135 16.6554 18.5811 17.4692C18.8967 18.0448 19.1009 18.6439 19.1931 19.25L0.806893 19.25Z" stroke="#FF5500" stroke-width="1.5"/>
</svg>

<svg width="20" height="20" fill="none" xmlns="http://www.w3.org/2000/svg"><path d="M14.704 5.333c0 2.516-2.09 4.584-4.704 4.584S5.295 7.849 5.295 5.333C5.295 2.818 7.385.75 10 .75c2.614 0 4.704 2.068 4.704 4.583zM.807 19.25a5.384 5.384 0 01.612-1.78c.446-.815 1.108-1.57 1.962-2.214.854-.645 1.878-1.164 3.016-1.52A12.113 12.113 0 0110 13.193c1.24 0 2.464.185 3.603.541 1.139.357 2.162.876 3.016 1.52.854.646 1.516 1.4 1.962 2.214.316.576.52 1.175.612 1.781H.807z" stroke="#F50" stroke-width="1.5"/></svg>
